X: 9
T: The Rejoicing Night
%R: reel
B: "Twenty Four Favourite Dances for the Year 1779", Thomas Straight, ed. p.5 #1
F: http://www.vwml.org/browse/browse-collections-dance-tune-books/browse-straights1779
Z: 2014 John Chambers <jc:trillian.mit.edu>
M: C
L: 1/8
K: G
|:\
GABc defg | GBdB AFD2 |\
GABc defg | cAdB G2G2 :|
|:\
FADA FADA | GBDB GBDB |\
FADA FADA | EcAF G2G2 :|
%%begintext align
%% Hands across | same back again .|: cross over
%% and half figure :|. Right and Left :|:
%%endtext

%%sep 1 1 500
%%sep 1 1 500
